X:447
T:Reel 447
L:1/8
M: 4/4
K: D Major
AB|d2d2defa|b2a2f2f2|babc'd'c'd'b|a2a2f2dA|BBdefedf|b2a2a2(3fga|bafefabc'|d'2d2d2:||:a2|f3edefa|bc'd'ba2f2|abafe2fe|d2d2d2aa|b3abc'd'b|afffa2bc'|d'c'babafe|d2d2d2:|.abc